X: 1
T: Laura Lynn Cunningham
M: 4/4
L: 1/8
R: reel
K: Bmin
FB~B2 Ac~c2 | d2fd eAcA | FB(3BBB FBBc | Acef c2BA |
FB~B2 ABc | d2fd eAcA | B2fB ecAB | BAdc ~B2BA |
FBBB Ac~c2 | d2fd eAcA | FB2 FBBc | Acef c2ba |
bfab efaf | eAcd dcBA | BF~F2 ABcf | ~f2ec B3z |
|: ~B2 c/2B/2A BF~F2 | EFAB ceae | f B~B2 FBBc | Acef c2BA |
BbbB a2fe | cfec ecAc | B~F2F ABce | ~f2ec ~B2BA :|
